X:160
T: HERMANN FLA LAERM AN
N: E1279
O: Europa, Mitteleuropa, Deutschland, Westfalen, Dortmund
R: Staende -, Soldaten -, Kriegs - Lied
M: 4/4
L: 1/4
K: C
 | G2EG | A2G
G | G2EG | A2G
G | A2GG | G2E
G | A2GG | G2E
G | A2GG | G2E2

@@@ Tune index: 4844
